X: 14555
T: Gan Ainm
R: mazurka
M: 3/4
K: Dmajor
|:"D"A2 fe d2|"Em"c2b2a2|"A"gf e^d e2|"D"fe dc d2|
"D"A2 fe d2|"Em"c2b2a2|"A"gf ed ce|"D"d2d2z2:|
|:"Em"gf e^d e2|"D"fe dc d2|"A"ed cA Bc|"D"d2f2a2|
"Em"gf e^d e2|"D"fe dc d2|"A"e2c2A2|"D"d2d2z2:|
K: Gmaj
|:"G"g2B2 c^c|"Am"d2 cB c2|"D"f2 e^d e2|"G"ag fe df|
"G"g2B2c^c|"Am"d2 cB c2|"D"fe dc BA|"G"G2G2z2:|

